X: 22623
T: Lady-love
R: polka
M: 2/4
K: Gmajor
|:B/c/|dB GB|Ae ed|cA FA|e/d/^c/d/ BG|
dB GB|Ae ed|cA FA|GG G:|
|:F/G/|Ad Af|fe e/d/e|g^c ed|fd A/G/F/G/|
Ad Af|fe e/d/e/f/|aa ge|dd d:|
|:d|dB d2|dc c/B/c|cA c2|cB B/A/B|
dB d2|dc c/B/c|F/G/A/B/ c/d/e/f/|gg g:|

